img/q22.svg

<svg width="514" height="93" viewBox="0 0 514 93" fill="none" xmlns="http://www.w3.org/2000/svg">
<g clip-path="url(#clip0)">
<path fill-rule="evenodd" clip-rule="evenodd" d="M186.77 73C184.058 75.7372 180.592 77.6047 176.814 78.3642C173.036 79.1238 169.118 78.7411 165.558 77.265C161.999 75.7889 158.959 73.2861 156.828 70.0759C154.696 66.8657 153.569 63.0934 153.59 59.24C153.531 56.6534 153.99 54.081 154.939 51.6741C155.889 49.2672 157.309 47.0742 159.118 45.2241C160.927 43.3739 163.087 41.9038 165.472 40.9001C167.856 39.8964 170.418 39.3794 173.005 39.3794C175.592 39.3794 178.154 39.8964 180.538 40.9001C182.923 41.9038 185.083 43.3739 186.892 45.2241C188.701 47.0742 190.121 49.2672 191.071 51.6741C192.02 54.081 192.479 56.6534 192.42 59.24C192.464 61.7973 191.985 64.3366 191.014 66.7026C190.042 69.0686 188.598 71.2114 186.77 73ZM162.67 69.6C165.424 72.293 169.123 73.8008 172.975 73.8008C176.827 73.8008 180.526 72.293 183.28 69.6C184.639 68.2449 185.708 66.6278 186.423 64.847C187.138 63.0661 187.484 61.1586 187.44 59.24C187.488 57.312 187.145 55.3942 186.429 53.6031C185.714 51.8119 184.643 50.1847 183.28 48.82C180.526 46.1271 176.827 44.6192 172.975 44.6192C169.123 44.6192 165.424 46.1271 162.67 48.82C161.309 50.1855 160.239 51.8131 159.526 53.6043C158.812 55.3954 158.47 57.3127 158.52 59.24C158.474 61.158 158.818 63.0652 159.531 64.8461C160.245 66.627 161.312 68.2444 162.67 69.6ZM216.46 51.2H221.12V78H216.46V66.82H202.59V78H197.93V51.23H202.59V62.37H216.46V51.23V51.2ZM250.52 51.2V78H245.87V55.73H235.31V66.66C235.31 71.0534 234.427 74.1134 232.66 75.84C230.9 77.57 228.41 78.3 225.19 78.01V73.62C225.919 73.7946 226.68 73.7757 227.4 73.5652C228.119 73.3547 228.77 72.96 229.29 72.42C230.2 71.36 230.66 69.42 230.66 66.55V51.23L250.52 51.2ZM279.77 51.2H284.43V78H279.77V73.4C278.699 75.0986 277.198 76.4836 275.419 77.4145C273.64 78.3453 271.646 78.7888 269.64 78.7C267.845 78.7236 266.066 78.3709 264.416 77.6647C262.766 76.9585 261.282 75.9146 260.06 74.6C257.503 71.8981 256.079 68.3197 256.079 64.6C256.079 60.8804 257.503 57.302 260.06 54.6C261.282 53.2868 262.767 52.2444 264.417 51.5399C266.067 50.8355 267.846 50.4846 269.64 50.51C271.646 50.4212 273.64 50.8648 275.419 51.7956C277.198 52.7265 278.699 54.1115 279.77 55.81V51.23V51.2ZM270.23 74.2C271.492 74.233 272.748 74.0049 273.918 73.53C275.088 73.055 276.148 72.3435 277.03 71.44C278.401 70.1035 279.341 68.3867 279.727 66.5111C280.113 64.6355 279.928 62.6872 279.196 60.9177C278.464 59.1482 277.219 57.6386 275.621 56.5838C274.022 55.529 272.145 54.9773 270.23 55C268.978 54.9723 267.734 55.202 266.574 55.6751C265.415 56.1482 264.365 56.8544 263.49 57.75C261.731 59.5888 260.749 62.0353 260.749 64.58C260.749 67.1247 261.731 69.5713 263.49 71.41C264.363 72.3089 265.412 73.018 266.572 73.4929C267.732 73.9678 268.977 74.1983 270.23 74.17V74.2ZM295.89 47.2V43.15H310.35V47.22L295.89 47.2ZM310.94 51.2H314.69V78H310.08V59.21L295.24 78H291.5V51.23H296.1V70L310.94 51.2ZM340.29 51.2H344.94V78H340.29V66.82H326.41V78H321.75V51.23H326.41V62.37H340.29V51.23V51.2ZM393.15 78H387L370.87 60V78H365.87V40.52H370.87V57.45L386.5 40.52H392.61L376.06 58.73L393.15 78ZM416.87 51.22H421.53V78H416.87V73.4C415.802 75.0985 414.302 76.4837 412.525 77.4147C410.747 78.3456 408.755 78.7891 406.75 78.7C404.954 78.7243 403.172 78.3721 401.521 77.6659C399.869 76.9597 398.383 75.9153 397.16 74.6C394.61 71.8947 393.19 68.3176 393.19 64.6C393.19 60.8825 394.61 57.3054 397.16 54.6C398.384 53.2861 399.87 52.2432 401.522 51.5388C403.173 50.8343 404.954 50.4839 406.75 50.51C408.755 50.421 410.747 50.8645 412.525 51.7954C414.302 52.7264 415.802 54.1115 416.87 55.81V51.23V51.22ZM407.34 74.22C408.602 74.2524 409.858 74.024 411.028 73.5491C412.198 73.0742 413.257 72.363 414.14 71.46C415.892 69.6178 416.87 67.1726 416.87 64.63C416.87 62.0875 415.892 59.6423 414.14 57.8C412.326 56.0364 409.895 55.0498 407.365 55.0498C404.835 55.0498 402.404 56.0364 400.59 57.8C398.838 59.6423 397.86 62.0875 397.86 64.63C397.86 67.1726 398.838 69.6178 400.59 71.46C401.465 72.3597 402.516 73.0692 403.677 73.5441C404.839 74.019 406.086 74.2491 407.34 74.22ZM441.19 78.72C439.327 78.7639 437.474 78.4291 435.744 77.7359C434.014 77.0427 432.443 76.0055 431.126 74.6873C429.808 73.369 428.772 71.797 428.08 70.0665C427.388 68.3361 427.055 66.4832 427.1 64.62C427.058 62.7586 427.393 60.9078 428.086 59.1797C428.779 57.4516 429.816 55.8821 431.133 54.5659C432.45 53.2498 434.02 52.2144 435.749 51.5225C437.478 50.8305 439.329 50.4963 441.19 50.54C443.693 50.5019 446.158 51.1597 448.31 52.44C450.342 53.6446 451.974 55.4222 453 57.55L449.09 59.8C448.421 58.3793 447.346 57.189 446 56.38C444.185 55.331 442.078 54.9039 439.998 55.1638C437.918 55.4238 435.98 56.3566 434.48 57.82C432.746 59.6497 431.78 62.0744 431.78 64.595C431.78 67.1157 432.746 69.5404 434.48 71.37C435.355 72.2623 436.403 72.965 437.561 73.4347C438.719 73.9043 439.961 74.1308 441.21 74.1C442.891 74.1183 444.546 73.683 446 72.84C447.389 72.0408 448.52 70.8611 449.26 69.44L453.26 71.75C452.109 73.8548 450.404 75.6046 448.33 76.81C446.173 78.0771 443.712 78.7338 441.21 78.71L441.19 78.72ZM470.05 78.72C468.19 78.7598 466.341 78.4219 464.615 77.7268C462.889 77.0317 461.322 75.9937 460.009 74.6757C458.695 73.3577 457.663 71.787 456.974 70.0586C456.285 68.3303 455.954 66.4801 456 64.62C455.956 62.7591 456.29 60.9085 456.982 59.1805C457.675 57.4524 458.71 55.8827 460.026 54.5664C461.343 53.2502 462.912 52.2147 464.64 51.5226C466.368 50.8305 468.219 50.4962 470.08 50.54C472.587 50.5021 475.055 51.1598 477.21 52.44C479.25 53.6415 480.888 55.4194 481.92 57.55L478 59.8C477.321 58.3737 476.231 57.1828 474.87 56.38C473.055 55.331 470.948 54.9039 468.868 55.1638C466.788 55.4238 464.85 56.3566 463.35 57.82C461.616 59.6497 460.65 62.0744 460.65 64.595C460.65 67.1157 461.616 69.5404 463.35 71.37C464.222 72.263 465.269 72.9663 466.425 73.436C467.582 73.9058 468.822 74.1318 470.07 74.1C471.761 74.1252 473.427 73.6896 474.89 72.84C476.284 72.0441 477.419 70.8638 478.16 69.44L482.16 71.75C481.015 73.8563 479.313 75.6069 477.24 76.81C475.079 78.0774 472.615 78.7341 470.11 78.71L470.05 78.72ZM508.51 51.24H513.16V78H508.51V73.4C507.438 75.0979 505.937 76.4823 504.158 77.4131C502.379 78.3438 500.386 78.7878 498.38 78.7C496.585 78.7242 494.805 78.3718 493.155 77.6656C491.505 76.9594 490.022 75.9151 488.8 74.6C486.243 71.8981 484.819 68.3197 484.819 64.6C484.819 60.8804 486.243 57.302 488.8 54.6C490.022 53.2863 491.506 52.2436 493.156 51.5391C494.806 50.8346 496.586 50.484 498.38 50.51C500.386 50.4223 502.379 50.8663 504.158 51.797C505.937 52.7277 507.438 54.1122 508.51 55.81V51.23V51.24ZM498.97 74.24C500.232 74.273 501.488 74.0449 502.658 73.57C503.828 73.095 504.888 72.3835 505.77 71.48C507.154 70.1477 508.105 68.4302 508.5 66.5505C508.895 64.6708 508.716 62.7157 507.986 60.9389C507.257 59.1622 506.009 57.6459 504.407 56.5869C502.804 55.5278 500.921 54.975 499 55C497.747 54.9721 496.501 55.2017 495.34 55.6748C494.179 56.1478 493.127 56.8541 492.25 57.75C490.498 59.5923 489.52 62.0375 489.52 64.58C489.52 67.1226 490.498 69.5678 492.25 71.41C493.122 72.3165 494.171 73.033 495.333 73.5148C496.494 73.9967 497.743 74.2333 499 74.21L498.97 74.24Z" fill="white"/>
<path fill-rule="evenodd" clip-rule="evenodd" d="M7.79 26.54H138.18V85C138.18 87.0661 137.359 89.0475 135.898 90.5084C134.437 91.9693 132.456 92.79 130.39 92.79H7.79C5.72396 92.79 3.74255 91.9693 2.28164 90.5084C0.82073 89.0475 0 87.0661 0 85L0 34.33C0 32.264 0.82073 30.2826 2.28164 28.8217C3.74255 27.3608 5.72396 26.54 7.79 26.54V26.54Z" fill="#AFCA05"/>
<path fill-rule="evenodd" clip-rule="evenodd" d="M154.38 19.48C157 16 158.26 10 156.22 0C130.48 4 136 17.91 138.46 22.26C142.251 16.3819 146.722 10.9712 151.78 6.14C148.351 11.0938 145.385 16.3527 142.92 21.85C146.39 17.85 150.46 17.64 154.38 19.48V19.48ZM162.48 27.64C151.2 40.36 145.15 33.32 142.9 29.5C146.403 28.3347 150.092 27.8262 153.78 28C150.057 26.8504 146.162 26.3597 142.27 26.55C143.64 23.26 149.28 13.55 162.48 27.64Z" fill="#85BC22"/>
<path fill-rule="evenodd" clip-rule="evenodd" d="M78.76 41.08H82.15V44.47H78.76V41.08ZM30.21 62.32L38.63 41.08H44.23L31.29 71.57C29.39 76.04 26.9 78.02 22.29 78.2C19.899 78.2363 17.5231 77.8154 15.29 76.96V72.69C19.66 73.97 20.23 74.12 21.79 74.09C23.92 74.09 25.72 72.95 27.79 68.17L15.32 41.08H20.73L30.21 62.32V62.32ZM66.92 78.2H62.25V68.33C60.1972 68.8708 58.0829 69.143 55.96 69.14C49.41 69.14 45.52 65.76 45.46 59.08V51H50.11V59.27C50.11 63.33 52.11 65.1 55.96 65.1C58.0829 65.103 60.1972 64.8308 62.25 64.29V51H66.92V78.2ZM85.52 78.2C76.8 78.2 72.58 72.48 72.58 64.51C72.58 57.51 77.09 51.02 84.92 51.02C94.68 51.02 96.53 58.15 96.53 65.9H76.88C76.8751 67.0418 77.1014 68.1728 77.5452 69.2248C77.9891 70.2769 78.6413 71.2282 79.4626 72.0215C80.2839 72.8147 81.2573 73.4335 82.3241 73.8406C83.3909 74.2476 84.5291 74.4345 85.67 74.39C87.1054 74.4507 88.5352 74.176 89.8458 73.5875C91.1564 72.999 92.3118 72.1131 93.22 71L96.22 73.13C93.82 76.51 90.2534 78.2 85.52 78.2V78.2ZM84.92 54.69C80.37 54.69 77.56 58.26 77.04 62.23H92.23C92.23 58.16 89.48 54.69 84.92 54.69V54.69ZM122.85 54.78H113.73V78.2H109.08V54.78H100.08V51H122.8V54.76L122.85 54.78ZM87 41.11H90.39V44.5H87V41.11Z" fill="white"/>
</g>
<defs>
<clipPath id="clip0">
<rect width="513.16" height="92.76" fill="white"/>
</clipPath>
</defs>
</svg>

<svg width="514" height="93" viewBox="0 0 514 93" fill="none" xmlns="http://www.w3.org/2000/svg"><g clip-path="url(#a)" fill-rule="evenodd" clip-rule="evenodd"><path d="M186.77 73a19.397 19.397 0 0 1-21.212 4.265A19.4 19.4 0 0 1 153.59 59.24a19.42 19.42 0 1 1 38.83 0A18.804 18.804 0 0 1 186.77 73zm-24.1-3.4a14.74 14.74 0 0 0 20.61 0 14.165 14.165 0 0 0 4.16-10.36 14.23 14.23 0 0 0-4.16-10.42 14.74 14.74 0 0 0-20.61 0 14.236 14.236 0 0 0-4.15 10.42 14.17 14.17 0 0 0 4.15 10.36zm53.79-18.4h4.66V78h-4.66V66.82h-13.87V78h-4.66V51.23h4.66v11.14h13.87V51.2zm34.06 0V78h-4.65V55.73h-10.56v10.93c0 4.393-.883 7.453-2.65 9.18-1.76 1.73-4.25 2.46-7.47 2.17v-4.39a4.301 4.301 0 0 0 4.1-1.2c.91-1.06 1.37-3 1.37-5.87V51.23l19.86-.03zm29.25 0h4.66V78h-4.66v-4.6a11.382 11.382 0 0 1-10.13 5.3 12.845 12.845 0 0 1-9.58-4.1 14.547 14.547 0 0 1 0-20 12.838 12.838 0 0 1 9.58-4.09 11.38 11.38 0 0 1 10.13 5.3V51.2zm-9.54 23a9.17 9.17 0 0 0 6.8-2.76 9.582 9.582 0 0 0-1.409-14.856A9.583 9.583 0 0 0 270.23 55a9.144 9.144 0 0 0-6.74 2.75 9.88 9.88 0 0 0 0 13.66 9.105 9.105 0 0 0 6.74 2.76v.03zm25.66-27v-4.05h14.46v4.07l-14.46-.02zm15.05 4h3.75V78h-4.61V59.21L295.24 78h-3.74V51.23h4.6V70l14.84-18.8zm29.35 0h4.65V78h-4.65V66.82h-13.88V78h-4.66V51.23h4.66v11.14h13.88V51.2zM393.15 78H387l-16.13-18v18h-5V40.52h5v16.93l15.63-16.93h6.11l-16.55 18.21L393.15 78zm23.72-26.78h4.66V78h-4.66v-4.6a11.36 11.36 0 0 1-10.12 5.3 12.856 12.856 0 0 1-9.59-4.1 14.579 14.579 0 0 1 0-20 12.85 12.85 0 0 1 9.59-4.09 11.363 11.363 0 0 1 10.12 5.3v-4.59zm-9.53 23a9.181 9.181 0 0 0 6.8-2.76 9.912 9.912 0 0 0 0-13.66 9.72 9.72 0 0 0-13.55 0 9.912 9.912 0 0 0 0 13.66 9.126 9.126 0 0 0 6.75 2.76zm33.85 4.5a13.77 13.77 0 0 1-14.09-14.1 13.781 13.781 0 0 1 4.033-10.054 13.765 13.765 0 0 1 10.057-4.026c2.503-.038 4.968.62 7.12 1.9a12 12 0 0 1 4.69 5.11l-3.91 2.25a7.932 7.932 0 0 0-3.09-3.42 9.611 9.611 0 0 0-11.52 1.44 9.849 9.849 0 0 0 0 13.55 9.11 9.11 0 0 0 6.73 2.73 9.348 9.348 0 0 0 4.79-1.26 8.397 8.397 0 0 0 3.26-3.4l4 2.31a13.15 13.15 0 0 1-4.93 5.06 13.797 13.797 0 0 1-7.12 1.9l-.02.01zm28.86 0A13.761 13.761 0 0 1 456 64.62a13.757 13.757 0 0 1 14.08-14.08c2.507-.038 4.975.62 7.13 1.9a12 12 0 0 1 4.71 5.11L478 59.8a7.927 7.927 0 0 0-3.13-3.42 9.611 9.611 0 0 0-11.52 1.44 9.849 9.849 0 0 0 0 13.55 9.07 9.07 0 0 0 6.72 2.73 9.321 9.321 0 0 0 4.82-1.26 8.358 8.358 0 0 0 3.27-3.4l4 2.31a13.064 13.064 0 0 1-4.92 5.06 13.83 13.83 0 0 1-7.13 1.9l-.06.01zm38.46-27.48h4.65V78h-4.65v-4.6a11.393 11.393 0 0 1-10.13 5.3 12.84 12.84 0 0 1-9.58-4.1 14.547 14.547 0 0 1 0-20 12.83 12.83 0 0 1 9.58-4.09 11.39 11.39 0 0 1 10.13 5.3v-4.58.01zm-9.54 23a9.17 9.17 0 0 0 6.8-2.76 9.575 9.575 0 0 0 2.216-10.541A9.576 9.576 0 0 0 499 55a9.16 9.16 0 0 0-6.75 2.75 9.912 9.912 0 0 0 0 13.66 9.129 9.129 0 0 0 6.75 2.8l-.03.03z" fill="#fff"/><path d="M7.79 26.54h130.39V85a7.79 7.79 0 0 1-7.79 7.79H7.79A7.79 7.79 0 0 1 0 85V34.33a7.79 7.79 0 0 1 7.79-7.79z" fill="#AFCA05"/><path d="M154.38 19.48C157 16 158.26 10 156.22 0 130.48 4 136 17.91 138.46 22.26a88.993 88.993 0 0 1 13.32-16.12 98.191 98.191 0 0 0-8.86 15.71c3.47-4 7.54-4.21 11.46-2.37zm8.1 8.16c-11.28 12.72-17.33 5.68-19.58 1.86a29.997 29.997 0 0 1 10.88-1.5 33.47 33.47 0 0 0-11.51-1.45c1.37-3.29 7.01-13 20.21 1.09z" fill="#85BC22"/><path d="M78.76 41.08h3.39v3.39h-3.39v-3.39zM30.21 62.32l8.42-21.24h5.6L31.29 71.57c-1.9 4.47-4.39 6.45-9 6.63a18.772 18.772 0 0 1-7-1.24v-4.27c4.37 1.28 4.94 1.43 6.5 1.4 2.13 0 3.93-1.14 6-5.92L15.32 41.08h5.41l9.48 21.24zM66.92 78.2h-4.67v-9.87c-2.053.54-4.167.813-6.29.81-6.55 0-10.44-3.38-10.5-10.06V51h4.65v8.27c0 4.06 2 5.83 5.85 5.83 2.123.003 4.237-.27 6.29-.81V51h4.67v27.2zm18.6 0c-8.72 0-12.94-5.72-12.94-13.69 0-7 4.51-13.49 12.34-13.49 9.76 0 11.61 7.13 11.61 14.88H76.88a8.46 8.46 0 0 0 8.79 8.49A9.24 9.24 0 0 0 93.22 71l3 2.13c-2.4 3.38-5.967 5.07-10.7 5.07zm-.6-23.51c-4.55 0-7.36 3.57-7.88 7.54h15.19c0-4.07-2.75-7.54-7.31-7.54zm37.93.09h-9.12V78.2h-4.65V54.78h-9V51h22.72v3.76l.05.02zM87 41.11h3.39v3.39H87v-3.39z" fill="#fff"/></g><defs><clipPath id="a"><path fill="#fff" d="M0 0h513.16v92.76H0z"/></clipPath></defs></svg>
